X:663
T: TRUTZ NIT SO
N: E0614
O: Europa, Mitteleuropa, Deutschland, Frankreich, Elsass
R: Liebes - Lied
M: 2/4
L: 1/16
K: F
 | c2c2c3B | A2A2A3G |
F2A2d3c | c2B2B4 |
B2B2B3A | G2G2G3F |
E2G2c3B | B2A2A4

@@@ Tune index: 4313
